src/lib/packages/icons/src/assets/filled/location-pin-eye.svg

<svg width="24" height="24" viewBox="0 0 24 24" fill="none" xmlns="http://www.w3.org/2000/svg">
<path d="M13.25 11C13.25 11.69 12.69 12.25 12 12.25C11.31 12.25 10.75 11.69 10.75 11C10.75 10.31 11.3 9.75 11.99 9.75H12C12.69 9.75 13.25 10.31 13.25 11ZM20.5 11C20.5 15.983 15.871 19.041 12.808 21.064L12.278 21.416C12.194 21.472 12.097 21.5 12.001 21.5C11.905 21.5 11.808 21.472 11.724 21.416L11.194 21.064C8.13097 19.041 3.50201 15.983 3.50201 11C3.50201 6.313 7.31501 2.5 12.002 2.5C16.689 2.5 20.5 6.313 20.5 11ZM15.82 10.3401C15.27 9.42009 14.05 7.87012 12 7.87012C9.95 7.87012 8.72999 9.42009 8.17999 10.3401C7.93999 10.7501 7.93999 11.2499 8.17999 11.6599C8.72999 12.5799 9.95 14.1201 12 14.1201C14.05 14.1201 15.27 12.5799 15.82 11.6599C16.06 11.2499 16.06 10.7501 15.82 10.3401Z" fill="currentColor"/>
</svg>

<svg xmlns="http://www.w3.org/2000/svg" width="24" height="24" fill="none"><path fill="currentColor" d="M13.25 11a1.25 1.25 0 1 1-1.26-1.25H12c.69 0 1.25.56 1.25 1.25Zm7.25 0c0 4.983-4.629 8.041-7.692 10.064l-.53.352a.5.5 0 0 1-.554 0l-.53-.352C8.131 19.041 3.502 15.983 3.502 11c0-4.687 3.813-8.5 8.5-8.5 4.687 0 8.498 3.813 8.498 8.5Zm-4.68-.66c-.55-.92-1.77-2.47-3.82-2.47s-3.27 1.55-3.82 2.47a1.3 1.3 0 0 0 0 1.32c.55.92 1.77 2.46 3.82 2.46s3.27-1.54 3.82-2.46a1.3 1.3 0 0 0 0-1.32Z"/></svg>
